X: 1
T: The Dancing Master
R: jig
M: 6/8
L: 1/8
K: Ador
| "Am" cAA eAA | cAA e2A        | "G" BGG dGG   |  "Em7" gfe dcB |
  "Am" ccA eAA | cAA e2f.       | "Em7" gfe dcB |1 "Am" cAA A2B :|2 "Am" cAA A2d ||
  "Am" efg a2b | aba "Em11" age | "Am" efg a2b  |  "D" age g3   |
  "Am" efg a2b | aba agf        | "Em7" gfe dcB |1 "Am" cAA A2d :|2 "Am" cAA A2B ||
